X: 3
T: Gan Ainm
M: 4/4
L: 1/8
R: reel
K: Fmaj
|: c3 d cFAF | DGGA G2 AB | c2 AF CFAF | G2 FG AF F2 :| 
|: Ac (3c^Bc dcAc | dgga gfde |(3fef fd c2 Ac | f3 g af f2 :|
